piano:
V1: o2 a / a+++++++ / a++++++++++++ / a+++++++++++++++ / a+++++++++++++++++++ / a++++++++++++++++++++++++ a / a+++++++ / a++++++++++++ / a+++++++++++++++ / a+++++++++++++++++++ / a++++++++++++++++++++++++ a+++ / a+++++++ / a++++++++++ / a+++++++++++++++ / a++++++++++++++++++++++ / a+++++++++++++++++++++++++++ a+++ / a+++++++ / a++++++++++ / a+++++++++++++++ / a++++++++++++++++++++++ / a+++++++++++++++++++++++++++ a / a+++++ / a++++++++++ / a+++++++++++++++++ / a++++++++++++++++++++++ / a++++++++++++++++++++++++++ a / a+++++ / a++++++++++ / a+++++++++++++++++ / a++++++++++++++++++++++ / a++++++++++++++++++++++++++ a / a+++++++ / a++++++++++++ / a+++++++++++++++ / a+++++++++++++++++++ / a++++++++++++++++++++++++


