piano:
V1:(vol 100) (quant 100) a4(vol 100) (quant 100) a++4(vol 100) (quant 100) a++++4 %introductionMoment(vol 100) (quant 100) a++++++4(vol 100) (quant 100) a++++++++4(vol 100) (quant 100) a++++++++++4(vol 100) (quant 100) a++++++++++++4(vol 100) (quant 100) a++++++++++++++4


guitar:
V1: @introductionMoment(vol 100) (quant 100) a++++++4(vol 100) (quant 100) a++++++++4(vol 100) (quant 100) a++++++++++4(vol 100) (quant 100) a++++++++++++4(vol 100) (quant 100) a++++++++++++++4


