piano:
V1: o2  (vol 100) (quant 100) a2 / (vol 100) (quant 100) a+++++++2 / (vol 100) (quant 100) a++++++++++++2 / (vol 100) (quant 100) a+++++++++++++++2 / (vol 100) (quant 100) a+++++++++++++++++++2 / (vol 100) (quant 100) a++++++++++++++++++++++++2 (vol 100) (quant 100) a2 / (vol 100) (quant 100) a+++++++2 / (vol 100) (quant 100) a++++++++++++2 / (vol 100) (quant 100) a+++++++++++++++2 / (vol 100) (quant 100) a+++++++++++++++++++2 / (vol 100) (quant 100) a++++++++++++++++++++++++2(vol 100) (quant 100) r32 (vol 100) (quant 100) a2 / (vol 100) (quant 100) a+++++++2 / (vol 100) (quant 100) a++++++++++++2 / (vol 100) (quant 100) a+++++++++++++++2 / (vol 100) (quant 100) a+++++++++++++++++++2 / (vol 100) (quant 100) a++++++++++++++++++++++++2 (vol 100) (quant 100) a2 / (vol 100) (quant 100) a+++++++2 / (vol 100) (quant 100) a++++++++++++2 / (vol 100) (quant 100) a+++++++++++++++2 / (vol 100) (quant 100) a+++++++++++++++++++2 / (vol 100) (quant 100) a++++++++++++++++++++++++2(vol 100) (quant 100) r32 (vol 100) (quant 100) a+++8 / (vol 100) (quant 100) a+++++++8 / (vol 100) (quant 100) a++++++++++8 / (vol 100) (quant 100) a+++++++++++++++8 / (vol 100) (quant 100) a++++++++++++++++++++++8 / (vol 100) (quant 100) a+++++++++++++++++++++++++++8 (vol 100) (quant 100) a+++8 / (vol 100) (quant 100) a+++++++8 / (vol 100) (quant 100) a++++++++++8 / (vol 100) (quant 100) a+++++++++++++++8 / (vol 100) (quant 100) a++++++++++++++++++++++8 / (vol 100) (quant 100) a+++++++++++++++++++++++++++8(vol 100) (quant 100) r32 (vol 100) (quant 100) a+++8 / (vol 100) (quant 100) a+++++++8 / (vol 100) (quant 100) a++++++++++8 / (vol 100) (quant 100) a+++++++++++++++8 / (vol 100) (quant 100) a++++++++++++++++++++++8 / (vol 100) (quant 100) a+++++++++++++++++++++++++++8 (vol 100) (quant 100) a+++8 / (vol 100) (quant 100) a+++++++8 / (vol 100) (quant 100) a++++++++++8 / (vol 100) (quant 100) a+++++++++++++++8 / (vol 100) (quant 100) a++++++++++++++++++++++8 / (vol 100) (quant 100) a+++++++++++++++++++++++++++8(vol 100) (quant 100) r32 (vol 100) (quant 100) a8 / (vol 100) (quant 100) a+++++8 / (vol 100) (quant 100) a++++++++++8 / (vol 100) (quant 100) a+++++++++++++++++8 / (vol 100) (quant 100) a++++++++++++++++++++++8 / (vol 100) (quant 100) a++++++++++++++++++++++++++8 (vol 100) (quant 100) a8 / (vol 100) (quant 100) a+++++8 / (vol 100) (quant 100) a++++++++++8 / (vol 100) (quant 100) a+++++++++++++++++8 / (vol 100) (quant 100) a++++++++++++++++++++++8 / (vol 100) (quant 100) a++++++++++++++++++++++++++8(vol 100) (quant 100) r32 (vol 100) (quant 100) a8 / (vol 100) (quant 100) a+++++8 / (vol 100) (quant 100) a++++++++++8 / (vol 100) (quant 100) a+++++++++++++++++8 / (vol 100) (quant 100) a++++++++++++++++++++++8 / (vol 100) (quant 100) a++++++++++++++++++++++++++8 (vol 100) (quant 100) a8 / (vol 100) (quant 100) a+++++8 / (vol 100) (quant 100) a++++++++++8 / (vol 100) (quant 100) a+++++++++++++++++8 / (vol 100) (quant 100) a++++++++++++++++++++++8 / (vol 100) (quant 100) a++++++++++++++++++++++++++8(vol 100) (quant 100) r32 (vol 100) (quant 100) a2 / (vol 100) (quant 100) a+++++++2 / (vol 100) (quant 100) a++++++++++++2 / (vol 100) (quant 100) a+++++++++++++++2 / (vol 100) (quant 100) a+++++++++++++++++++2 / (vol 100) (quant 100) a++++++++++++++++++++++++2


