piano:
V1: o1 (vol 100) (quant 100) a4


piano:
V1: o2 (vol 100) (quant 100) a4


piano:
V1: o3 (vol 100) (quant 100) a4


piano:
V1: o4 (vol 100) (quant 100) a4


piano:
V1: o5 (vol 100) (quant 100) a4


piano:
V1: o6 (vol 100) (quant 100) a4


piano:
V1: o7 (vol 100) (quant 100) a4


