guitar:
V1:(tempo! 150)  %intro(vol 100) (quant 100) r4 (vol 100) (quant 100) a++4 / (vol 100) (quant 100) a+++++4 / (vol 100) (quant 100) a+++++++++4(vol 100) (quant 100) r4 (vol 100) (quant 100) a++4 / (vol 100) (quant 100) a+++++4 / (vol 100) (quant 100) a+++++++++4(vol 100) (quant 100) r4 (vol 100) (quant 100) a++4 / (vol 100) (quant 100) a+++++4 / (vol 100) (quant 100) a+++++++++4(vol 100) (quant 100) r4 (vol 100) (quant 100) a++4 / (vol 100) (quant 100) a+++++4 / (vol 100) (quant 100) a+++++++++4(vol 100) (quant 100) r4 (vol 100) (quant 100) a+4 / (vol 100) (quant 100) a++++4 / (vol 100) (quant 100) a+++++++++4(vol 100) (quant 100) r4 (vol 100) (quant 100) a+4 / (vol 100) (quant 100) a++++4 / (vol 100) (quant 100) a+++++++++4(vol 100) (quant 100) r4 (vol 100) (quant 100) a+4 / (vol 100) (quant 100) a++++4 / (vol 100) (quant 100) a+++++++++4(vol 100) (quant 100) r4 (vol 100) (quant 100) a+4 / (vol 100) (quant 100) a++++4 / (vol 100) (quant 100) a+++++++++4(vol 100) (quant 100) r4 (vol 100) (quant 100) a++4 / (vol 100) (quant 100) a+++++4 / (vol 100) (quant 100) a+++++++++4(vol 100) (quant 100) r4 (vol 100) (quant 100) a++4 / (vol 100) (quant 100) a+++++4 / (vol 100) (quant 100) a+++++++++4(vol 100) (quant 100) r4 (vol 100) (quant 100) a++4 / (vol 100) (quant 100) a+++++4 / (vol 100) (quant 100) a+++++++++4(vol 100) (quant 100) r4 (vol 100) (quant 100) a++4 / (vol 100) (quant 100) a+++++4 / (vol 100) (quant 100) a+++++++++4(vol 100) (quant 100) r4 (vol 100) (quant 100) a+4 / (vol 100) (quant 100) a++++4 / (vol 100) (quant 100) a+++++++++4(vol 100) (quant 100) r4 (vol 100) (quant 100) a+4 / (vol 100) (quant 100) a++++4 / (vol 100) (quant 100) a+++++++++4(vol 100) (quant 100) r4 (vol 100) (quant 100) a+4 / (vol 100) (quant 100) a++++4 / (vol 100) (quant 100) a+++++++++4(vol 100) (quant 100) r4 (vol 100) (quant 100) a+4 / (vol 100) (quant 100) a++++4 / (vol 100) (quant 100) a+++++++++4


piano:
V1: @intro(vol 60) (quant 100) a++4(vol 60) (quant 100) a+++++4(vol 60) (quant 100) a+++++++++4(vol 60) (quant 100) a+++++++++4(vol 60) (quant 100) a++4(vol 60) (quant 100) a+++++4(vol 60) (quant 100) a+++++++++4(vol 60) (quant 100) a+++++++++4(vol 60) (quant 100) a+4(vol 60) (quant 100) a++++4(vol 60) (quant 100) a+++++++++4(vol 60) (quant 100) a+++++++++4(vol 60) (quant 100) a+4(vol 60) (quant 100) a++++4(vol 60) (quant 100) a+++++++++4(vol 60) (quant 100) a+++++++++4(vol 60) (quant 100) a++4(vol 60) (quant 100) a+++++4(vol 60) (quant 100) a+++++++++4(vol 60) (quant 100) a+++++++++4(vol 60) (quant 100) a++4(vol 60) (quant 100) a+++++4(vol 60) (quant 100) a+++++++++4(vol 60) (quant 100) a+++++++++4(vol 60) (quant 100) a+4(vol 60) (quant 100) a++++4(vol 60) (quant 100) a+++++++++4(vol 60) (quant 100) a+++++++++4(vol 60) (quant 100) a+4(vol 60) (quant 100) a++++4(vol 60) (quant 100) a+++++++++4(vol 60) (quant 100) a+++++++++4


